X:1
T:Elim (Greatorex), CM
T:Elim (Greatorex), CM
T:Henry Wellington Greatorex, 1849
T:Public Domain Courtesy of the Cyber Hymnal™
C:Henry Wellington Greatorex, 1849
Z:Public Domain
Z:Courtesy of the Cyber Hymnal™
%%score ( 1 2 ) ( 3 4 )
L:1/8
M:3/4
K:Bb
V:1 treble 
V:2 treble 
V:3 bass 
V:4 bass 
V:1
 [DF]2 | (F2 d2) [DB]2 | [DF]4 [DF]2 | (F2 e2) [Ec]2 | [EF]4 [EF]2 | (F2 d2) [DB]2 | %6
 (B2 A2) [=EB]2 | [Fc]4 [EF]2 | (d2 B2) [DF]2 | [DF]4 [DF]2 | (e2 c2) [EF]2 | [EF]4 [EF]2 | %12
 (F2 B2) [Gc]2 | [Bd]4 [Fc]2 | [FB]4 |] %15
V:2
 x2 | D4 x2 | x6 | E4 x2 | x6 | D4 x2 | D4 x2 | x6 | D4 x2 | x6 | E4 x2 | x6 | D4 x2 | x6 | x4 |] %15
V:3
 [B,,F,]2 | [B,,F,]4 [B,,F,]2 | (F,2 D2) [B,,B,]2 | [A,,F,]4 [A,,F,]2 | (F,2 E2) [A,,C]2 | %5
 [B,,F,]4 [B,,F,]2 | [G,,G,]4 [C,G,]2 | [F,A,]4 [F,A,]2 | (B,2 F,2) [B,,F,]2 | (D2 B,2) [B,,F,]2 | %10
 [A,,F,]4 [A,,F,]2 | (E2 C2) [A,,F,]2 | (F,2 D2) [E,C]2 | (B,2 F2) [F,E]2 | [B,,D]4 |] %15
V:4
 x2 | x6 | B,,4 x2 | x6 | A,,4 x2 | x6 | x6 | x6 | B,,4 x2 | B,,4 x2 | x6 | A,,4 x2 | B,,4 x2 | %13
 F,4 x2 | x4 |] %15

